public/img/rsvp-section-icon.svg

<?xml version="1.0" encoding="UTF-8" standalone="no"?>
<svg width="199px" height="199px" viewBox="0 0 200 200" version="1.1" xmlns="http://www.w3.org/2000/svg" xmlns:xlink="http://www.w3.org/1999/xlink" xmlns:sketch="http://www.bohemiancoding.com/sketch/ns">
    <!-- Generator: Sketch 3.3.1 (12002) - http://www.bohemiancoding.com/sketch -->
    <title>wedding3</title>
    <desc>Created with Sketch.</desc>
    <defs>
        <path id="path-1" d="M0.571428571,0.904351573 L200,0.904351573 L200,200.861267 L0.571428571,200.861267 L0.571428571,0.904351573 Z"></path>
    </defs>
    <g id="Page-1" stroke="none" stroke-width="1" fill="none" fill-rule="evenodd" sketch:type="MSPage">
        <g id="wedding3" sketch:type="MSLayerGroup">
            <g id="Group-4">
                <mask id="mask-2" sketch:name="Clip 2" fill="white">
                    <use xlink:href="#path-1"></use>
                </mask>
                <g id="Clip-2"></g>
                <path d="M53.352381,38.991383 C49.1428571,38.991383 45.7238095,35.573072 45.7238095,31.364455 L45.7238095,8.53127962 C45.7238095,4.32266265 49.1428571,0.904351573 53.352381,0.904351573 C57.5142857,0.904351573 60.9333333,4.32266265 60.9333333,8.53127962 L60.9333333,31.364455 C60.9333333,35.573072 57.5142857,38.991383 53.352381,38.991383 L53.352381,38.991383 Z" id="Fill-1" fill="#a3a3a3" sketch:type="MSShapeGroup" mask="url(#mask-2)"></path>
                <path d="M175.219048,16.1582077 L160.009524,16.1582077 L160.009524,31.364455 C160.009524,39.7721672 153.161905,46.6183111 144.752381,46.6183111 C136.342857,46.6183111 129.542857,39.7721672 129.542857,31.364455 L129.542857,16.1582077 L68.5619048,16.1582077 L68.5619048,31.364455 C68.5619048,39.7721672 61.752381,46.6183111 53.352381,46.6183111 C44.9428571,46.6183111 38.0952381,39.7721672 38.0952381,31.364455 L38.0952381,16.1582077 L22.8380952,16.1582077 C10.2285714,16.1582077 0,26.3845756 0,38.991383 L0,176.085653 C0,188.740069 10.2285714,198.966437 22.8380952,198.966437 L175.219048,198.966437 C187.87619,198.966437 198.104762,188.740069 198.104762,176.085653 L198.104762,38.991383 C198.104762,26.3845756 187.87619,16.1582077 175.219048,16.1582077 L175.219048,16.1582077 Z M182.847619,176.085653 C182.847619,180.29427 179.428571,183.712581 175.219048,183.712581 L22.8380952,183.712581 C18.6761905,183.712581 15.2571429,180.29427 15.2571429,176.085653 L15.2571429,69.4514864 L182.847619,69.4514864 L182.847619,176.085653 Z" id="Fill-3" fill="#a3a3a3" sketch:type="MSShapeGroup"></path>
            </g>
            <path d="M144.752381,38.991383 C140.552381,38.991383 137.12381,35.573072 137.12381,31.364455 L137.12381,8.53127962 C137.12381,4.32266265 140.552381,0.904351573 144.752381,0.904351573 C148.961905,0.904351573 152.380952,4.32266265 152.380952,8.53127962 L152.380952,31.364455 C152.380952,35.573072 148.961905,38.991383 144.752381,38.991383 L144.752381,38.991383 Z" id="Fill-5" fill="#a3a3a3" sketch:type="MSShapeGroup"></path>
            <path d="M115.4,93.2558811 C108.409524,93.2558811 102.342857,98.2833692 99.0285714,101.739767 C95.7238095,98.2833692 89.6571429,93.2558811 82.6666667,93.2558811 C70.4952381,93.2558811 61.9428571,101.739767 61.9428571,113.860965 C61.9428571,127.219991 72.5428571,135.846704 82.7428571,144.254416 C87.5333333,148.158337 92.5619048,152.281258 96.352381,156.823137 C97.0285714,157.565834 97.9904762,158.013356 98.9238095,158.013356 L99.1428571,158.013356 C100.114286,158.013356 101.038095,157.527747 101.714286,156.823137 C105.542857,152.252693 110.561905,148.158337 115.32381,144.254416 C125.561905,135.846704 136.12381,127.219991 136.12381,113.860965 C136.12381,101.739767 127.6,93.2558811 115.4,93.2558811 L115.4,93.2558811 Z" id="Fill-6" fill="#AF78C7" sketch:type="MSShapeGroup"></path>
        </g>
    </g>
</svg>

<?xml version="1.0" encoding="UTF-8" standalone="no"?>
<svg xmlns:sketch="http://www.bohemiancoding.com/sketch/ns" xmlns="http://www.w3.org/2000/svg" height="199px" width="199px" version="1.1" xmlns:xlink="http://www.w3.org/1999/xlink" viewBox="0 0 200 200"><!-- Generator: Sketch 3.3.1 (12002) - http://www.bohemiancoding.com/sketch -->
 <title>wedding3</title>
 <desc>Created with Sketch.</desc>
 <defs>
  <path id="path-1" d="m0.57143 0.90435h199.43v199.96h-199.43l0.00143-199.96z"/>
 </defs>
 <g id="Page-1" fill-rule="evenodd" sketch:type="MSPage" fill="none">
  <g id="wedding3" sketch:type="MSLayerGroup">
   <g id="Group-4" fill="#a3a3a3">
    <mask id="mask-2" sketch:name="Clip 2" fill="white">
     <use xlink:href="#path-1"/>
    </mask>
    <path id="Fill-1" sketch:type="MSShapeGroup" mask="url(#mask-2)" d="m53.352 38.991c-4.209 0-7.628-3.418-7.628-7.627v-22.833c0-4.2083 3.419-7.6266 7.628-7.6266 4.162-0.00005 7.581 3.4183 7.581 7.6269v22.833c0 4.209-3.419 7.627-7.581 7.627z"/>
    <path id="Fill-3" sketch:type="MSShapeGroup" d="m175.22 16.158h-15.21v15.206c0 8.408-6.85 15.254-15.26 15.254s-15.21-6.846-15.21-15.254v-15.206h-60.978v15.206c0 8.408-6.81 15.254-15.21 15.254-8.409 0-15.257-6.846-15.257-15.254v-15.206h-15.257c-12.609 0-22.838 10.227-22.838 22.833v137.1c0 12.65 10.229 22.88 22.838 22.88h152.38c12.66 0 22.88-10.23 22.88-22.88v-137.1c0-12.605-10.22-22.832-22.88-22.832zm7.63 159.93c0 4.2-3.42 7.62-7.63 7.62h-152.38c-4.164 0-7.583-3.42-7.583-7.62v-106.64l167.59 0.001v106.64z"/>
   </g>
   <path id="Fill-5" sketch:type="MSShapeGroup" fill="#a3a3a3" d="m144.75 38.991c-4.2 0-7.63-3.418-7.63-7.627v-22.833c0-4.2083 3.43-7.6266 7.63-7.6266 4.21-0.00005 7.63 3.4183 7.63 7.6269v22.833c0 4.209-3.42 7.627-7.63 7.627z"/>
   <path id="Fill-6" sketch:type="MSShapeGroup" fill="#AF78C7" d="m115.4 93.256c-6.99 0-13.06 5.027-16.371 8.484-3.305-3.457-9.372-8.484-16.362-8.484-12.172 0-20.724 8.484-20.724 20.604 0 13.36 10.6 21.99 20.8 30.39 4.79 3.91 9.819 8.03 13.609 12.57 0.677 0.75 1.638 1.19 2.572 1.19h0.219c0.967 0 1.897-0.48 2.567-1.19 3.83-4.57 8.85-8.66 13.61-12.57 10.24-8.4 20.8-17.03 20.8-30.39 0-12.12-8.52-20.604-20.72-20.604z"/>
  </g>
 </g>
</svg>
